!!!COM: (Achille-) Claude Debussy
!!!OTL: [T169_Deb-w13p37m77-90]
**kern	**dynam	**kern	**dynam	**kern	**dynam	**kern	**dynam
*clefF4	*	*clefC3	*	*clefG2	*	*clefG2	*
*k[b-e-]	*	*k[b-e-]	*	*k[b-e-]	*	*k[b-e-]	*
*B-:	*	*B-:	*	*B-:	*	*B-:	*
*M4/4	*	*M4/4	*	*M4/4	*	*M4/4	*
=77-	=77-	=77-	=77-	=77-	=77-	=77-	=77-
!	!	!	!	!	!	!LO:TX:t=[[half]=132]	!
*tuplet	*	*	*	*	*	*	*
!LO:TUP:xbr	!	!	!	!	!	!	!
(6GG-X	p	(2C	p	1e- 1g-X	p	(4.B-~	p
6AA-X	.	.	.	.	.	.	.
6GG-)	.	.	.	.	.	.	.
.	.	.	.	.	.	8c)	.
!LO:TUP:xbr	!	!	!	!	!	!	!
(6AA-	.	2E-X)	.	.	.	(4.A-X~	.
6GG-	.	.	.	.	.	.	.
6AA-)	.	.	.	.	.	.	.
.	.	.	.	.	.	8c)	.
=78	=78	=78	=78	=78	=78	=78	=78
*Xtuplet	*	*	*	*	*	*	*
(6GG-X	.	(2G-X	.	1B- 1b-	.	2e-	.
6AA-X	.	.	.	.	.	.	.
6GG-)	.	.	.	.	.	.	.
(6AA-	.	2D-X)	.	.	.	(4f	.
6GG-	.	.	.	.	.	.	.
.	.	.	.	.	.	4d-X)	.
6AA-)	.	.	.	.	.	.	.
=79	=79	=79	=79	=79	=79	=79	=79
(6GG-X	.	(2C	.	1e- 1g-X	.	(4.B-	.
6AA-X	.	.	.	.	.	.	.
6GG-)	.	.	.	.	.	.	.
.	.	.	.	.	.	8c)	.
(6AA-	.	2E-)	.	.	.	(4.A-X~	.
6GG-	.	.	.	.	.	.	.
6AA-)	.	.	.	.	.	.	.
.	.	.	.	.	.	8c)	.
=80	=80	=80	=80	=80	=80	=80	=80
(6GG-X	.	(2G-X	.	1d-X 1b-	.	1B-	.
6AA-X	.	.	.	.	.	.	.
6GG-)	.	.	.	.	.	.	.
(6AA-	.	2D-X)	.	.	.	.	.
6GG-	.	.	.	.	.	.	.
6AA-)	.	.	.	.	.	.	.
!!linebreak:original
=81	=81	=81	=81	=81	=81	=81	=81
!	!LO:HP:t=poco a poco cresc.	!	!LO:HP:t=poco a poco cresc.	!	!LO:HP:t=poco a poco %s	!	!LO:HP:t=poco a poco %s
(6GG-X	<	(2C	<	(4.B-	<	1e- 1g-X	<
6AA-X	.	.	.	.	.	.	.
6GG-)	.	.	.	.	.	.	.
.	.	.	.	8c)	.	.	.
(6AA-	.	2E-)	.	(4.A-X	.	.	.
6GG-	.	.	.	.	.	.	.
6AA-)	.	.	.	.	.	.	.
.	.	.	.	8c)	.	.	.
=82	=82	=82	=82	=82	=82	=82	=82
*grp:B	*	*grp:A	*	*	*	*	*
!	!	!LO:TUP:xbr	!	!	!	!	!
1GG-X	.	(6D-X	.	2e-	.	[1B- [1b-	.
.	.	6E-	.	.	.	.	.
.	.	6D-)	.	.	.	.	.
!	!	!LO:TUP:xbr	!	!	!	!	!
.	.	(6E-	.	(4f	.	.	.
.	.	6D-	.	.	.	.	.
.	.	.	.	4d-X)	.	.	.
.	.	6E-)	.	.	.	.	.
=83	=83	=83	=83	=83	=83	=83	=83
*	*	*Xtuplet	*	*	*	*	*
1GGn	.	(6D-X	.	2e-	.	1B-] 1b-]	.
.	.	6E-	.	.	.	.	.
.	.	6D-)	.	.	.	.	.
.	.	(6E-	.	(4f	.	.	.
.	.	6D-	.	.	.	.	.
.	.	.	.	4d-X)	.	.	.
.	.	6E-)	.	.	.	.	.
=84	=84	=84	=84	=84	=84	=84	=84
1AA-X	<	(6D-X	<	2e-	<	1c-X 1cc-X	<
.	.	6E-	.	.	.	.	.
.	.	6D-)	.	.	.	.	.
.	.	(6E-	.	(4f	.	.	.
.	.	6D-	.	.	.	.	.
.	.	.	.	4d-X)	.	.	.
.	.	6E-)	.	.	.	.	.
=85	=85	=85	=85	=85	=85	=85	=85
2.AAn	.	(6D-X	.	2e-	.	1cn 1ccn	.
.	.	6E-	.	.	.	.	.
.	.	6F)	.	.	.	.	.
.	.	(6A	.	(4f	.	.	.
.	.	6c	.	.	.	.	.
4r	[	.	.	4a)	.	.	.
.	.	6e-)	[	.	[	.	[
!!linebreak:original
=	=	=	=	=	=	=	=
*-	*-	*-	*-	*-	*-	*-	*-
!!!system-decoration: [(s1,s2,s3,s4)]
!!!RDF**kern: > = above
!!!RDF**kern: < = below
!!!EED: Daniel Wright
!!!EEV: 2021/10/15
!!!EED2: Rafael Laurindo
!!!EEV2: 2022/03/26
!!!excerpt-duration-sec: 8.8
